X: 104
T:Valse  Bouscatel
M:3/4
L:1/4
Q:1/4=80
O:France
K:C
e>fg|e>fg|f/2e/2da|g2e/2f/2|gg/2a/2 g/2f/2|
ece|1d/2c/2 d/2e/2 f/2e/2|d2:|2d/2c/2 B/2c/2 d/2B/2|c2B/2c/2|
|:dd c/2d/2|ee d/2e/2|fed|g2a/2g/2|fd/2e/2 f/2d/2|
ece|d/2c/2 d/2e/2 f/2e/2|c2B/2c/2:|d/2c/2 B/2c/2 d/2B/2|c3||
W:
W: From "Falaleiro" http://home.t-online.de/home/pheld/homepage.htm
